X:520
%%etbk:tnset id:250,pos:2,rep:3x,ant:
%%etbk:wsite http://thesession.org/tunes/941
%%etbk:video src:ytube,cde:yAkVrc5LjsI,desc:second tune
%%etbk:color #ffffcc
%%etbk:pldat 2016-09-16T15:27,2016-09-13T17:46,2016-05-24T16:44,2016-04-11T18:49,2016-03-24T16:32,2016-03-21T18:42,2016-03-20T10:33,2016-03-17T18:30,2015-09-06T14:45,2015-07-17T15:22,2015-05-06T15:40,2015-02-14T14:29,2015-02-04T16:55,2015-02-03T17:05,2015-01-26T19:33,2015-01-24T12:45,2015-01-17T14:49,2015-01-05T19:39,2014-12-31T15:28,2014-12-29T16:48,2014-12-28T15:30,2014-09-09T18:40,2014-07-04T13:05,2014-05-19T18:27,2014-05-01T18:54,2014-04-12T15:23,2014-04-03T19:48,2014-04-02T17:56,2014-03-18T16:59,2014-03-16T15:47,2014-03-15T16:40,2014-03-09T16:59,2014-03-01T17:37,2014-02-20T19:21,2014-02-19T16:34,2014-02-16T16:06,2014-02-15T16:56,2014-02-14T17:05,2014-02-14T15:47,2014-02-13T18:40,2014-02-11T17:07,2013-10-04T17:22,2013-09-26T15:36
T: The Gatehouse Maid
Z: Piano Box Version by Martin Fleischmann
H: Created 2013-09-10 /  Last Modified 2015-07-17
R: reel
M: 4/4
L: 1/8
K: Ador
"am"!1!A2Bd !5!edBA| "G"!3!GGGA !3!GED!3!G| "am"!1!A2Bd !5!e!1!BBB| "em"!4!g!2!e!1!d!2!B !2!B!1!A!1!G!3!B|
"am"!1!A2!4!gf !2!e!1!d!3!B!2!A| "G"!1!G2!3!GA !3!G!2!ED!3!G| "am"!1!A2!2!Bd e!1!BBB| "em"!2!eg!1!d!2!B {c}B!1!AAe||
"am"!4!a2!1!e!4!a agef| "G"!3!~g2!1!dg !1!Bgdg| "am"!4!a2ea !4!agab| "em"!3!ge!1!d!2!B "am"{c}B!1!AAz|
"am"!4!agab ag!1!ef| "G"!3!~g3a gzge| !1!dega bga!3!g|!4!ge!1!d!2!B {c}B!1!A!1!GB||


